assets/images/fig_4_7_conserve.svg

<?xml version="1.0" encoding="UTF-8" standalone="no"?>
<svg
   width="340"
   height="449.75211"
   xml:space="preserve"
   overflow="hidden"
   version="1.1"
   id="svg427"
   xmlns="http://www.w3.org/2000/svg"
   xmlns:svg="http://www.w3.org/2000/svg"><defs
     id="defs431" /><g
     transform="matrix(0.25131664,0,0,0.25131664,-11.827589,-16.387915)"
     id="g425"><path
       d="m 453.788,232.369 2.626,46.005 -4.576,0.261 -2.626,-46.005 z m 13.804,40.776 -12.161,28.239 -15.294,-26.672 z"
       id="path331" /><path
       d="m 286.5,67.4999 h 330 V 199.5 l -165,33 -165,-33 z"
       stroke="#000000"
       stroke-width="4.58333"
       stroke-miterlimit="8"
       fill="#ffffff"
       fill-rule="evenodd"
       id="path333" /><text
       font-family="Arial, Arial_MSFontService, sans-serif"
       font-weight="700"
       font-size="37px"
       transform="translate(350.819,147)"
       id="text335">RUN MODE</text><path
       d="m 206.5,435 247,-130.5 247,130.5 -247,130.5 z"
       stroke="#000000"
       stroke-width="4.58333"
       stroke-miterlimit="8"
       fill="#ffffff"
       fill-rule="evenodd"
       id="path337" /><text
       font-family="Arial, Arial_MSFontService, sans-serif"
       font-weight="400"
       font-size="37px"
       transform="translate(401.158,424)"
       id="text339">Target </text><text
       font-family="Arial, Arial_MSFontService, sans-serif"
       font-weight="400"
       font-size="37px"
       transform="translate(370.22,468)"
       id="text341">Detected?</text><text
       font-family="'Arial Narrow', 'Arial Narrow_MSFontService', sans-serif"
       font-weight="700"
       font-stretch="condensed"
       font-size="41px"
       transform="translate(120.698,420)"
       id="text343">YES</text><text
       font-family="'Arial Narrow', 'Arial Narrow_MSFontService', sans-serif"
       font-weight="700"
       font-stretch="condensed"
       font-size="41px"
       transform="translate(735.501,418)"
       id="text345">NO</text><path
       d="m 701.5,430.208 h 253.14 v 82.471 h -4.583 V 432.5 l 2.292,2.292 H 701.5 Z m 264.599,77.888 -13.75,27.5 -13.75,-27.5 z"
       id="path347" /><path
       d="m 704.5,958.5 247,-130 247,130 -247,130 z"
       stroke="#000000"
       stroke-width="4.58333"
       stroke-miterlimit="8"
       fill="#ffffff"
       fill-rule="evenodd"
       id="path349" /><text
       font-family="Arial, Arial_MSFontService, sans-serif"
       font-weight="400"
       font-size="37px"
       transform="translate(822.16,947)"
       id="text351">Conserve Timer</text><text
       font-family="Arial, Arial_MSFontService, sans-serif"
       font-weight="400"
       font-size="37px"
       transform="translate(880.025,991)"
       id="text353">Expired?</text><text
       font-family="'Arial Narrow', 'Arial Narrow_MSFontService', sans-serif"
       font-weight="700"
       font-stretch="condensed"
       font-size="41px"
       transform="translate(987.245,1126)"
       id="text355">YES</text><rect
       x="704.5"
       y="535.5"
       width="495"
       height="222"
       stroke="#000000"
       stroke-width="4.58333"
       stroke-miterlimit="8"
       fill="#ffffff"
       id="rect357" /><text
       font-family="Arial, Arial_MSFontService, sans-serif"
       font-weight="400"
       font-size="37px"
       transform="translate(974.336,616)"
       id="text359">START </text><text
       font-family="Arial, Arial_MSFontService, sans-serif"
       font-weight="400"
       font-size="37px"
       transform="translate(931.367,660)"
       id="text361">CONSERVE </text><text
       font-family="Arial, Arial_MSFontService, sans-serif"
       font-weight="400"
       font-size="37px"
       transform="translate(917.319,704)"
       id="text363">MODE TIMER</text><g
       id="g373"><g
         id="g371"><g
           id="g369"><path
             d="m 779.873,691.448 c -21.269,0.006 -38.516,-17.231 -38.522,-38.5 -0.006,-21.269 17.231,-38.516 38.5,-38.522 21.269,-0.006 38.516,17.231 38.522,38.5 0,0.003 0,0.007 0,0.011 0.038,21.231 -17.142,38.473 -38.373,38.511 -0.042,0 -0.084,0 -0.127,0 z m 32.588,-72.071 4.125,-4.125 c 1.541,-1.638 1.48,-4.211 -0.138,-5.775 -1.591,-1.551 -4.111,-1.611 -5.775,-0.137 l -4.675,4.812 c -6.541,-4.431 -14.122,-7.085 -22,-7.7 v -5.775 h 12.375 v -8.25 h -33 v 8.25 h 12.375 v 5.638 c -25.792,2.244 -44.882,24.972 -42.637,50.764 2.244,25.793 24.972,44.883 50.764,42.639 25.793,-2.245 44.883,-24.973 42.638,-50.765 -0.977,-11.228 -5.965,-21.727 -14.052,-29.576 z"
             stroke="#000000"
             stroke-width="4.63158"
             id="path365" /><path
             d="m 812.871,652.916 c -0.022,-18.216 -14.784,-32.979 -33,-33 v 33 z"
             stroke="#000000"
             stroke-width="4.63158"
             id="path367" /></g></g></g><path
       d="m 702.5,1186 c 0,-15.19 12.312,-27.5 27.5,-27.5 h 440 c 15.19,0 27.5,12.31 27.5,27.5 v 110 c 0,15.19 -12.31,27.5 -27.5,27.5 H 730 c -15.188,0 -27.5,-12.31 -27.5,-27.5 z"
       stroke="#000000"
       stroke-width="4.58333"
       stroke-miterlimit="8"
       fill="#ffffff"
       fill-rule="evenodd"
       id="path375" /><text
       font-family="Arial, Arial_MSFontService, sans-serif"
       font-style="italic"
       font-weight="400"
       font-size="37px"
       transform="translate(821.646,1233)"
       id="text377">Machine Enters</text><text
       font-family="Arial, Arial_MSFontService, sans-serif"
       font-style="italic"
       font-weight="400"
       font-size="37px"
       transform="translate(819.652,1277)"
       id="text379">Conserve Mode</text><path
       d="m 702.5,1715 c 0,-15.19 12.312,-27.5 27.5,-27.5 h 440 c 15.19,0 27.5,12.31 27.5,27.5 v 110 c 0,15.19 -12.31,27.5 -27.5,27.5 H 730 c -15.188,0 -27.5,-12.31 -27.5,-27.5 z"
       stroke="#000000"
       stroke-width="4.58333"
       stroke-miterlimit="8"
       fill="#ffffff"
       fill-rule="evenodd"
       id="path381" /><text
       font-family="Arial, Arial_MSFontService, sans-serif"
       font-style="italic"
       font-weight="400"
       font-size="37px"
       transform="translate(817.074,1762)"
       id="text383">Resume Normal </text><text
       font-family="Arial, Arial_MSFontService, sans-serif"
       font-style="italic"
       font-weight="400"
       font-size="37px"
       transform="translate(859.47,1806)"
       id="text385">Operations</text><path
       d="m 954.792,757.473 0.529,44.104 -4.583,0.055 -0.529,-44.104 z m 11.932,39.383 -13.419,27.663 -14.079,-27.333 z"
       id="path387" /><path
       d="M 2.28959,-0.0974303 4.39695,49.4251 -0.182237,49.62 -2.28959,0.0974303 Z M 15.6501,44.3588 3.08166,72.4185 -11.8251,45.5279 Z"
       transform="matrix(-1,0,0,1,953.582,1086.5)"
       id="path389" /><path
       d="M 0,0 H 139.948 V 969.746"
       stroke="#000000"
       stroke-width="4.58333"
       stroke-miterlimit="8"
       fill="none"
       fill-rule="evenodd"
       transform="matrix(-1,0,0,1,208.448,432.5)"
       id="path391" /><path
       d="m 68.4999,1401.5 c 0,0 1e-4,0 2e-4,0 1e-4,0 2e-4,0 2e-4,0 0,0 -10e-5,0 -2e-4,0 -1e-4,0 -2e-4,0 -2e-4,0 z"
       stroke="#042433"
       stroke-width="4.58333"
       stroke-miterlimit="8"
       fill="#156082"
       fill-rule="evenodd"
       id="path393" /><path
       d="M 0,0 H 142.93 V 881.909 H 285.858"
       stroke="#000000"
       stroke-width="4.58333"
       stroke-miterlimit="8"
       fill="none"
       fill-rule="evenodd"
       transform="matrix(0,1,1,0,68.4997,1401.5)"
       id="path395" /><path
       d="M 702.267,1243.29 H 452.208 V 585.417 h 4.584 V 1241 l -2.292,-2.29 H 702.267 Z M 440.75,590 454.5,562.5 468.25,590 Z"
       id="path397" /><path
       d="m 952.792,1323.5 v 340.9 h -4.583 l -10e-4,-340.9 z m 11.458,336.32 -13.75,27.5 -13.75,-27.5 z"
       id="path399" /><path
       d="M 741.5,247.496 770.496,218.5 h 107.008 l 28.996,28.996 v 41.008 L 877.504,317.5 H 770.496 L 741.5,288.504 Z"
       stroke="#000000"
       stroke-width="6.875"
       stroke-miterlimit="8"
       fill="#ffffff"
       fill-rule="evenodd"
       id="path401" /><text
       font-family="Arial, Arial_MSFontService, sans-serif"
       font-weight="700"
       font-size="37px"
       transform="translate(813.233,282)"
       id="text403">1</text><path
       d="M 50.5,273.496 79.4961,244.5 H 186.504 l 28.996,28.996 v 41.008 L 186.504,343.5 H 79.4961 L 50.5,314.504 Z"
       stroke="#000000"
       stroke-width="6.875"
       stroke-miterlimit="8"
       fill="#ffffff"
       fill-rule="evenodd"
       id="path405" /><text
       font-family="Arial, Arial_MSFontService, sans-serif"
       font-weight="700"
       font-size="37px"
       transform="translate(121.97,308)"
       id="text407">2</text><path
       d="m 1221.5,832.496 29,-28.996 h 107 l 29,28.996 v 41.008 l -29,28.996 h -107 l -29,-28.996 z"
       stroke="#000000"
       stroke-width="6.875"
       stroke-miterlimit="8"
       fill="#ffffff"
       fill-rule="evenodd"
       id="path409" /><text
       font-family="Arial, Arial_MSFontService, sans-serif"
       font-weight="700"
       font-size="37px"
       transform="translate(1292.86,866)"
       id="text411">3</text><path
       d="m 1231.5,1187.5 29,-29 h 107 l 29,29 v 41 l -29,29 h -107 l -29,-29 z"
       stroke="#000000"
       stroke-width="6.875"
       stroke-miterlimit="8"
       fill="#ffffff"
       fill-rule="evenodd"
       id="path413" /><text
       font-family="Arial, Arial_MSFontService, sans-serif"
       font-weight="700"
       font-size="37px"
       transform="translate(1303.08,1222)"
       id="text415">4</text><path
       d="m 159.5,1420.5 28.996,-29 h 107.008 l 28.996,29 v 41 l -28.996,29 H 188.496 l -28.996,-29 z"
       stroke="#000000"
       stroke-width="6.875"
       stroke-miterlimit="8"
       fill="#ffffff"
       fill-rule="evenodd"
       id="path417" /><text
       font-family="Arial, Arial_MSFontService, sans-serif"
       font-weight="700"
       font-size="37px"
       transform="translate(231.429,1455)"
       id="text419">5</text><path
       d="m 1056.5,1554.5 29,-29 h 107 l 29,29 v 41 l -29,29 h -107 l -29,-29 z"
       stroke="#000000"
       stroke-width="6.875"
       stroke-miterlimit="8"
       fill="#ffffff"
       fill-rule="evenodd"
       id="path421" /><text
       font-family="Arial, Arial_MSFontService, sans-serif"
       font-weight="700"
       font-size="37px"
       transform="translate(1127.86,1589)"
       id="text423">6</text></g></svg>

<svg width="1353" height="1790" xmlns="http://www.w3.org/2000/svg" xmlns:xlink="http://www.w3.org/1999/xlink" xml:space="preserve" overflow="hidden"><g transform="translate(-47 -65)"><path d="M453.788 232.369 456.414 278.374 451.838 278.635 449.212 232.63ZM467.592 273.145 455.431 301.384 440.137 274.712Z"/><path d="M286.5 67.4999 616.5 67.4999 616.5 199.5 451.5 232.5 286.5 199.5Z" stroke="#000000" stroke-width="4.58333" stroke-miterlimit="8" fill="#FFFFFF" fill-rule="evenodd"/><text font-family="Arial,Arial_MSFontService,sans-serif" font-weight="700" font-size="37" transform="matrix(1 0 0 1 350.819 147)">RUN MODE</text><path d="M206.5 435 453.5 304.5 700.5 435 453.5 565.5Z" stroke="#000000" stroke-width="4.58333" stroke-miterlimit="8" fill="#FFFFFF" fill-rule="evenodd"/><text font-family="Arial,Arial_MSFontService,sans-serif" font-weight="400" font-size="37" transform="matrix(1 0 0 1 401.158 424)">Target </text><text font-family="Arial,Arial_MSFontService,sans-serif" font-weight="400" font-size="37" transform="matrix(1 0 0 1 370.22 468)">Detected?</text><text font-family="Arial Narrow,Arial Narrow_MSFontService,sans-serif" font-weight="700" font-stretch="condensed" font-size="41" transform="matrix(1 0 0 1 120.698 420)">YES</text><text font-family="Arial Narrow,Arial Narrow_MSFontService,sans-serif" font-weight="700" font-stretch="condensed" font-size="41" transform="matrix(1 0 0 1 735.501 418)">NO</text><path d="M701.5 430.208 954.64 430.208 954.64 512.679 950.057 512.679 950.057 432.5 952.349 434.792 701.5 434.792ZM966.099 508.096 952.349 535.596 938.599 508.096Z"/><path d="M704.5 958.5 951.5 828.5 1198.5 958.5 951.5 1088.5Z" stroke="#000000" stroke-width="4.58333" stroke-miterlimit="8" fill="#FFFFFF" fill-rule="evenodd"/><text font-family="Arial,Arial_MSFontService,sans-serif" font-weight="400" font-size="37" transform="matrix(1 0 0 1 822.16 947)">Conserve Timer</text><text font-family="Arial,Arial_MSFontService,sans-serif" font-weight="400" font-size="37" transform="matrix(1 0 0 1 880.025 991)">Expired?</text><text font-family="Arial Narrow,Arial Narrow_MSFontService,sans-serif" font-weight="700" font-stretch="condensed" font-size="41" transform="matrix(1 0 0 1 987.245 1126)">YES</text><rect x="704.5" y="535.5" width="495" height="222" stroke="#000000" stroke-width="4.58333" stroke-miterlimit="8" fill="#FFFFFF"/><text font-family="Arial,Arial_MSFontService,sans-serif" font-weight="400" font-size="37" transform="matrix(1 0 0 1 974.336 616)">START </text><text font-family="Arial,Arial_MSFontService,sans-serif" font-weight="400" font-size="37" transform="matrix(1 0 0 1 931.367 660)">CONSERVE </text><text font-family="Arial,Arial_MSFontService,sans-serif" font-weight="400" font-size="37" transform="matrix(1 0 0 1 917.319 704)">MODE TIMER</text><g><g><g><path d="M779.873 691.448C758.604 691.454 741.357 674.217 741.351 652.948 741.345 631.679 758.582 614.432 779.851 614.426 801.12 614.42 818.367 631.657 818.373 652.926 818.373 652.929 818.373 652.933 818.373 652.937 818.411 674.168 801.231 691.41 780 691.448 779.958 691.448 779.916 691.448 779.873 691.448ZM812.461 619.377 816.586 615.252C818.127 613.614 818.066 611.041 816.448 609.477 814.857 607.926 812.337 607.866 810.673 609.34L805.998 614.152C799.457 609.721 791.876 607.067 783.998 606.452L783.998 600.677 796.373 600.677 796.373 592.427 763.373 592.427 763.373 600.677 775.748 600.677 775.748 606.315C749.956 608.559 730.866 631.287 733.111 657.079 735.355 682.872 758.083 701.962 783.875 699.718 809.668 697.473 828.758 674.745 826.513 648.953 825.536 637.725 820.548 627.226 812.461 619.377Z" stroke="#000000" stroke-width="4.63158"/><path d="M812.871 652.916C812.849 634.7 798.087 619.937 779.871 619.916L779.871 652.916Z" stroke="#000000" stroke-width="4.63158"/></g></g></g><path d="M702.5 1186C702.5 1170.81 714.812 1158.5 730 1158.5L1170 1158.5C1185.19 1158.5 1197.5 1170.81 1197.5 1186L1197.5 1296C1197.5 1311.19 1185.19 1323.5 1170 1323.5L730 1323.5C714.812 1323.5 702.5 1311.19 702.5 1296Z" stroke="#000000" stroke-width="4.58333" stroke-miterlimit="8" fill="#FFFFFF" fill-rule="evenodd"/><text font-family="Arial,Arial_MSFontService,sans-serif" font-style="italic" font-weight="400" font-size="37" transform="matrix(1 0 0 1 821.646 1233)">Machine Enters</text><text font-family="Arial,Arial_MSFontService,sans-serif" font-style="italic" font-weight="400" font-size="37" transform="matrix(1 0 0 1 819.652 1277)">Conserve Mode</text><path d="M702.5 1715C702.5 1699.81 714.812 1687.5 730 1687.5L1170 1687.5C1185.19 1687.5 1197.5 1699.81 1197.5 1715L1197.5 1825C1197.5 1840.19 1185.19 1852.5 1170 1852.5L730 1852.5C714.812 1852.5 702.5 1840.19 702.5 1825Z" stroke="#000000" stroke-width="4.58333" stroke-miterlimit="8" fill="#FFFFFF" fill-rule="evenodd"/><text font-family="Arial,Arial_MSFontService,sans-serif" font-style="italic" font-weight="400" font-size="37" transform="matrix(1 0 0 1 817.074 1762)">Resume Normal </text><text font-family="Arial,Arial_MSFontService,sans-serif" font-style="italic" font-weight="400" font-size="37" transform="matrix(1 0 0 1 859.47 1806)">Operations</text><path d="M954.792 757.473 955.321 801.577 950.738 801.632 950.209 757.528ZM966.724 796.856 953.305 824.519 939.226 797.186Z"/><path d="M2.28959-0.0974303 4.39695 49.4251-0.182237 49.62-2.28959 0.0974303ZM15.6501 44.3588 3.08166 72.4185-11.8251 45.5279Z" transform="matrix(-1 0 0 1 953.582 1086.5)"/><path d="M0 0 139.948 0 139.948 969.746" stroke="#000000" stroke-width="4.58333" stroke-miterlimit="8" fill="none" fill-rule="evenodd" transform="matrix(-1 1.22465e-16 1.22465e-16 1 208.448 432.5)"/><path d="M68.4999 1401.5C68.4999 1401.5 68.5 1401.5 68.5001 1401.5 68.5002 1401.5 68.5003 1401.5 68.5003 1401.5 68.5003 1401.5 68.5002 1401.5 68.5001 1401.5 68.5 1401.5 68.4999 1401.5 68.4999 1401.5Z" stroke="#042433" stroke-width="4.58333" stroke-miterlimit="8" fill="#156082" fill-rule="evenodd"/><path d="M0 0 142.93 0 142.93 881.909 285.858 881.909" stroke="#000000" stroke-width="4.58333" stroke-miterlimit="8" fill="none" fill-rule="evenodd" transform="matrix(1.83697e-16 1 1 -1.83697e-16 68.4997 1401.5)"/><path d="M702.267 1243.29 452.208 1243.29 452.208 585.417 456.792 585.417 456.792 1241 454.5 1238.71 702.267 1238.71ZM440.75 590 454.5 562.5 468.25 590Z"/><path d="M952.792 1323.5 952.792 1664.4 948.209 1664.4 948.208 1323.5ZM964.25 1659.82 950.5 1687.32 936.75 1659.82Z"/><path d="M741.5 247.496 770.496 218.5 877.504 218.5 906.5 247.496 906.5 288.504 877.504 317.5 770.496 317.5 741.5 288.504Z" stroke="#000000" stroke-width="6.875" stroke-miterlimit="8" fill="#FFFFFF" fill-rule="evenodd"/><text font-family="Arial,Arial_MSFontService,sans-serif" font-weight="700" font-size="37" transform="matrix(1 0 0 1 813.233 282)">1</text><path d="M50.5 273.496 79.4961 244.5 186.504 244.5 215.5 273.496 215.5 314.504 186.504 343.5 79.4961 343.5 50.5 314.504Z" stroke="#000000" stroke-width="6.875" stroke-miterlimit="8" fill="#FFFFFF" fill-rule="evenodd"/><text font-family="Arial,Arial_MSFontService,sans-serif" font-weight="700" font-size="37" transform="matrix(1 0 0 1 121.97 308)">2</text><path d="M1221.5 832.496 1250.5 803.5 1357.5 803.5 1386.5 832.496 1386.5 873.504 1357.5 902.5 1250.5 902.5 1221.5 873.504Z" stroke="#000000" stroke-width="6.875" stroke-miterlimit="8" fill="#FFFFFF" fill-rule="evenodd"/><text font-family="Arial,Arial_MSFontService,sans-serif" font-weight="700" font-size="37" transform="matrix(1 0 0 1 1292.86 866)">3</text><path d="M1231.5 1187.5 1260.5 1158.5 1367.5 1158.5 1396.5 1187.5 1396.5 1228.5 1367.5 1257.5 1260.5 1257.5 1231.5 1228.5Z" stroke="#000000" stroke-width="6.875" stroke-miterlimit="8" fill="#FFFFFF" fill-rule="evenodd"/><text font-family="Arial,Arial_MSFontService,sans-serif" font-weight="700" font-size="37" transform="matrix(1 0 0 1 1303.08 1222)">4</text><path d="M159.5 1420.5 188.496 1391.5 295.504 1391.5 324.5 1420.5 324.5 1461.5 295.504 1490.5 188.496 1490.5 159.5 1461.5Z" stroke="#000000" stroke-width="6.875" stroke-miterlimit="8" fill="#FFFFFF" fill-rule="evenodd"/><text font-family="Arial,Arial_MSFontService,sans-serif" font-weight="700" font-size="37" transform="matrix(1 0 0 1 231.429 1455)">5</text><path d="M1056.5 1554.5 1085.5 1525.5 1192.5 1525.5 1221.5 1554.5 1221.5 1595.5 1192.5 1624.5 1085.5 1624.5 1056.5 1595.5Z" stroke="#000000" stroke-width="6.875" stroke-miterlimit="8" fill="#FFFFFF" fill-rule="evenodd"/><text font-family="Arial,Arial_MSFontService,sans-serif" font-weight="700" font-size="37" transform="matrix(1 0 0 1 1127.86 1589)">6</text></g></svg>
